source/images/logo-html.svg

<svg xmlns="http://www.w3.org/2000/svg" width="27" height="35" fill="none" viewBox="0 0 27 35"><g clip-path="url(#a)"><path fill="#666" d="M13.643.516 13.5.5 0 1.907v24.606L13.5 34.5 27 26.513V1.907L13.643.516Zm11.591 25L13.5 32.456 1.766 25.515V15.43l11.685 6.916.02 1.253-8.017-4.743-.011 1.225 8.046 4.809.02 1.286-8.045-4.758-.01 1.226L13.5 27.45l8.124-4.833V17.41l3.62-2.15-.01 10.256Zm0-11.564-3.22 1.88-1.482.875-7.065-4.187-.011 1.225 6.04 3.573-.053.031-.13.076-.86.492-4.986-2.948-.011 1.225 3.936 2.328-.933.61-.021.012-2.971-1.742-.011 1.225 1.947 1.135-1.988 1.186-11.618-6.872 11.638-6.958 11.8 6.834Zm0-1.225L13.44 5.81 1.766 12.72V3.49L13.5 2.264 25.234 3.49v9.237Z"/></g><defs><clipPath id="a"><path fill="#fff" d="M0 .5h27v34H0z"/></clipPath></defs></svg>

<svg xmlns="http://www.w3.org/2000/svg" fill="none" viewBox="0 0 27 35"><g clip-path="url(#a)"><path fill="#666" d="m13.64.52-.14-.02-13.5 1.4v24.61l13.5 7.99 13.5-7.99v-24.6l-13.36-1.4Zm11.6 25-11.74 6.94-11.73-6.95v-10.08l11.68 6.92.02 1.25-8.02-4.74v1.22l8.04 4.81.02 1.29-8.05-4.76v1.22l8.04 4.81 8.12-4.83v-5.21l3.62-2.15v10.26Zm0-11.57-3.23 1.88-1.48.88-7.06-4.19-.01 1.22 6.04 3.58-.06.03-.13.07-.86.5-4.98-2.95-.01 1.22 3.93 2.33-.93.61-.02.01-2.97-1.74-.01 1.23 1.94 1.13-1.98 1.19-11.62-6.87 11.64-6.96 11.8 6.83Zm0-1.22-11.8-6.92-11.67 6.91v-9.23l11.73-1.23 11.73 1.23v9.24Z"/></g><defs><clipPath id="a"><path fill="#fff" d="M0 .5h27v34h-27z"/></clipPath></defs></svg>
